X: 34
T:Scottiche  Catinaux
O:France
A:Massif Central
M:2/4
L:1/16
Q:170
K:C
efed cGce|gfef d4|GABc d2de|1fedf e2c2:|2fedB c4|
|:e2g2 A2Bc|dcBA G4|GABc d2de|1fedf e2c2:|2fedB c4||
